X: 35278
T: Rose In The Heather, The
R: jig
M: 6/8
K: Dmajor
|:"D"FAF "A"EFE|"D"DFA BAF|"G"ABd ede|"A"fdB AFE|
"D"FAF "A"EFE|"D"DFA BAF|"G"AdB "D"AFE|1 "A"FDC "D"D2A:|2 "A"FDC "D"D2e||
|:"D"fdB ABd|"D"f2a afd|"G"g2g fed|"Em"Bee efg|
"D"fdB ABd|"D"faa afa|"G"bag "D"fge|1 "A"fdc "D"d2 e:|2 "A"fdc "D"dAG||

